!!!!SEGMENT: pl-sa--177-a-v-7--005_luna-georgius--missa-ex-d-sanctus.krn
!!!cenid: 17xx:469
!!!COM: Luna, Georgius
!!!COM-rismID: pe41010079
!!!CDT:
!!!CNT:
!!!OPR: Missa ex D
!!!OTL: Sanctus
!!!OMV: 005
!!!PDT:
!!!AGN: Sacred; Mass
!!!SMS-siglum: PL-SA
!!!SMS-shelfmark: 177/A V 7
!!!SMS-shelfwork: 001-005 M
!!!SMS-variant:
!!!SMS-altvar:
!!!NIFC-rismSourceID: 1001035883
!!!NIFC-rismChildID: 1001035883
!!!NIFC-islandoraID: none
!!!URL-pdf-islandora:
!!!URL-scan: https://bc.bdsandomierz.pl/dlibra/publication/1512/edition/1480/content @EN{Scan in the Sandomierz Diocese Digital Library} @PL{Skany w portalu Cyfrowa Biblioteka Diecezjalna w Sandomierzu}
!!!ONB-nifc: UWAGA; części Mszy: Sinfonia, Kyrie, Gloria, Patrem, Sanctus, Benedictus, Agnus, Dona. UWAGA: brak partii cornu primo, cornu secundo
!!!AIN: 5 empty 2 oboe 1 tenor 2 violn 1 vox
!!!key:
**kern	**dynam	**kern	**kern	**kern	**text	**kern	**text	**kern	**kern	**kern	**kern	**kern	**kern
*part11	*part11	*part10	*part9	*part8	*part8	*part7	*part7	*part6	*part5	*part4	*part3	*part2	*part1
*staff11	*	*staff10	*staff9	*staff8	*staff8	*staff7	*staff7	*staff6	*staff5	*staff4	*staff3	*staff2	*staff1
*Iempty	*	*Ivioln	*Ivioln	*Itenor	*	*Ivox	*	*Iempty	*Iempty	*Iempty	*Iempty	*Ioboe	*Ioboe
*I"Fundamento:	*	*I"Violino Secundo	*I"Violino Primo	*I"Tenor	*	*I"Canto	*	*I"Clarino Secundo	*I"Clarino Primo	*I"Cornu Secundo	*I"Cornu Primo	*I"Hobois 2do	*I"Hobois Primo
*I'Vc.	*	*I'Vn II	*I'Vn I	*I'T.	*	*I'C.	*	*I'Clarino II	*I'Tr-ba in B♭	*I'C.	*I'C.	*I'Ob. II	*I'Ob. I
*clefF4	*	*clefG2	*clefG2	*clefC4	*	*clefC1	*	*clefG2	*clefG2	*clefG2	*clefG2	*clefG2	*clefG2
*	*	*	*	*	*	*	*	*ITrd-1c-2	*ITrd-1c-2	*ITrd4c7	*ITrd4c7	*	*
*k[f#c#]	*	*k[f#c#]	*k[f#c#]	*k[f#c#]	*	*k[f#c#]	*	*k[f#c#]	*k[f#c#]	*k[f#c#]	*k[f#c#]	*k[f#c#]	*k[f#c#]
*D:	*	*D:	*D:	*D:	*	*D:	*	*D:	*D:	*D:	*D:	*D:	*D:
*M3/4	*	*M3/4	*M3/4	*M3/4	*	*M3/4	*	*M3/4	*M3/4	*M3/4	*M3/4	*M3/4	*M3/4
=1	=1	=1	=1	=1	=1	=1	=1	=1	=1	=1	=1	=1	=1
*2\right	*	*2\right	*2\right	*2\right	*	*2\right	*	*	*2\right	*	*	*2\right	*2\right
!LO:TX:b:t=Sanctus	!	!LO:TX:a:t=Sanctus	!LO:TX:b:t=Sanctus	!	!	!	!	!LO:TX:b:t=Sanctus	!LO:TX:b:t=Sanctus	!	!	!LO:TX:b:t=Sanctus	!LO:TX:b:t=Sanctus
!	!	!	!	!	!	!	!	!	!	!	!	!	!
!LO:TX:a:t=Andante	!	!	!LO:TX:a:t=Adagio	!	!	!LO:TX:a:t=Adagio Sanktus	!	!LO:TX:a:t=Adagio	!LO:TX:a:t=Andante	!	!	!LO:TX:a:t=Adagio	!LO:TX:a:t=Adagio
2.D\	.	2.ff#\	2.aa\	2.d\	San-	2.ff#\	San-	2.dd\	2.ff#\	2.ryy	2.ryy	2.ff#\	2.aa\
=2	=2	=2	=2	=2	=2	=2	=2	=2	=2	=2	=2	=2	=2
4D\	.	4ff#\	4aa\	4d\	-ctus	4ff#\	-ctus	8dd\L	8ff#\L	2.ryy	2.ryy	4ff#\	4aa\
.	.	.	.	.	.	.	.	16ff#\L	16aa\L	.	.	.	.
.	.	.	.	.	.	.	.	16ee\JJ	16gg\JJ	.	.	.	.
4A\	.	4r	4r	4r	.	4r	.	8dd\L	8ff#\L	.	.	4r	4r
.	.	.	.	.	.	.	.	8ff#\	8aa\	.	.	.	.
!	!LO:DY:t=p&colon;	!	!	!	!	!	!	!	!	!	!	!	!
!	!LO:DY:b	!	!	!	!	!	!	!	!	!	!	!	!
4AA/	p	4r	4r	4r	.	4r	.	8ee\	8gg\	.	.	4r	4r
.	.	.	.	.	.	.	.	8a\J	8ee\J	.	.	.	.
=3	=3	=3	=3	=3	=3	=3	=3	=3	=3	=3	=3	=3	=3
!	!	!	!	!LO:N:vis=0	!	!LO:N:vis=0	!	!	!	!	!	!LO:TX:a:t=Solo	!LO:TX:a:t=Solo
4D\	.	2.r	2.r	1.r	.	1.r	.	4dd\	4ff#\	2.ryy	2.ryy	8r	8r
.	.	.	.	.	.	.	.	.	.	.	.	16ff#\LL	16aa\LL
.	.	.	.	.	.	.	.	.	.	.	.	16ee\JJ	16gg\JJ
4A\	.	.	.	.	.	.	.	4r	4r	.	.	8dd\L	8ff#`\L
.	.	.	.	.	.	.	.	.	.	.	.	8ff#\	8aa`\
4AA/	.	.	.	.	.	.	.	4r	4r	.	.	8ee\	8gg`\
.	.	.	.	.	.	.	.	.	.	.	.	8cc#\J	8ee`\J
=4	=4	=4	=4	=4	=4	=4	=4	=4	=4	=4	=4	=4	=4
4D\	.	16r	16r	.	.	.	.	4dd\	4ff#\	2.ryy	2.ryy	4dd\	4ff#\
.	.	16ddd\LL	(16ddd\LL	.	.	.	.	.	.	.	.	.	.
.	.	16ccc#\	16ccc#\	.	.	.	.	.	.	.	.	.	.
.	.	16ddd\JJ	16ddd\JJ)	.	.	.	.	.	.	.	.	.	.
!	!LO:DY:t=for	!	!	!	!	!	!	!	!	!	!	!	!
!	!LO:DY:a	!	!	!	!	!	!	!	!	!	!	!	!
4F#\	f	16aa\LL	16aa`\LL	.	.	.	.	8dd\L	8ff#\L	.	.	4dd\	4ff#\
.	.	16ddd\	(16ddd\	.	.	.	.	.	.	.	.	.	.
.	.	16ccc#\	16ccc#\	.	.	.	.	8dd\	8ff#\	.	.	.	.
.	.	16ddd\JJ	16ddd\JJ)	.	.	.	.	.	.	.	.	.	.
4D\	.	16aa'\LL	16aa`\LL	.	.	.	.	8dd\	8ff#\	.	.	16aa\LL	16aa\LL
.	.	(16ff#\	(16ff#\	.	.	.	.	.	.	.	.	16ff#\	16ff#\
.	.	16ee\	16ee\	.	.	.	.	8dd\J	8ff#\J	.	.	16ee\	16ee\
.	.	16dd\JJ)	16dd\JJ)	.	.	.	.	.	.	.	.	16dd\JJ	16dd\JJ
=5	=5	=5	=5	=5	=5	=5	=5	=5	=5	=5	=5	=5	=5
2.A\	.	2.cc#\	2.ee\	2.c#\	San-	2.ee\	San-	2.a/	2ee\	2.ryy	2.ryy	2.cc#\	2.ee\
.	.	.	.	.	.	.	.	.	4ee\	.	.	.	.
=6	=6	=6	=6	=6	=6	=6	=6	=6	=6	=6	=6	=6	=6
!	!	!	!	!	!	!	!	!	!	!	!	!LO:TX:a:t=Solo	!LO:TX:a:t=Solo
4A\	.	4cc#\	4ee\	4c#\	-ctus	4ee\	-ctus	4a/	4ee\	2.ryy	2.ryy	8cc#\L	8ee\L
.	.	.	.	.	.	.	.	.	.	.	.	16cc#\L	16ee\L
.	.	.	.	.	.	.	.	.	.	.	.	16b\JJ	16dd\JJ
4E\	.	4r	4r	4r	.	4r	.	4r	4r	.	.	8a\L	8cc#`\L
.	.	.	.	.	.	.	.	.	.	.	.	8cc#\	8ee`\
4EE/	.	4r	4r	4r	.	4r	.	4r	4r	.	.	8b\	8dd`\
.	.	.	.	.	.	.	.	.	.	.	.	8g#X\J	8b`\J
=7	=7	=7	=7	=7	=7	=7	=7	=7	=7	=7	=7	=7	=7
!	!	!	!	!LO:N:vis=0	!	!LO:N:vis=0	!	!	!	!	!	!	!
4AA/	.	8r	8r	1.r	.	1.r	.	2.r	2.r	2.ryy	2.ryy	4a/	4cc#\
.	.	16ee\LL	(16ccc#\LL	.	.	.	.	.	.	.	.	.	.
.	.	16dd\JJ	16bb\JJ)	.	.	.	.	.	.	.	.	.	.
4E\	.	8cc#\L	8aa`\L	.	.	.	.	.	.	.	.	4r	4r
.	.	8ee\	8ccc#`\	.	.	.	.	.	.	.	.	.	.
4EE/	.	8dd\	8bb`\	.	.	.	.	.	.	.	.	4r	4r
.	.	8b\J	8gg#X`\J	.	.	.	.	.	.	.	.	.	.
=8	=8	=8	=8	=8	=8	=8	=8	=8	=8	=8	=8	=8	=8
4AA/	.	16cc#'\LL	16aa`\LL	.	.	.	.	4a/	4ee\	2.ryy	2.ryy	4a/	4cc#\
.	.	(16aa\	(16aa\	.	.	.	.	.	.	.	.	.	.
.	.	16gg#X\	16gg#X\	.	.	.	.	.	.	.	.	.	.
.	.	16aa\JJ)	16aa\JJ)	.	.	.	.	.	.	.	.	.	.
4C#/	.	16ee'\LL	16ee`\LL	.	.	.	.	8a/L	8ee\L	.	.	4a/	4cc#\
.	.	(16aa\	(16aa\	.	.	.	.	.	.	.	.	.	.
.	.	16gg#\	16gg#X\	.	.	.	.	8a/	8ee\	.	.	.	.
.	.	16aa\JJ)	16aa\JJ)	.	.	.	.	.	.	.	.	.	.
4AA/	.	16ee`\LL	16ee`\LL	.	.	.	.	8a/	8ee\	.	.	16ee\LL	16ee\LL
.	.	(16cc#\	(16cc#\	.	.	.	.	.	.	.	.	16cc#\	16cc#\
.	.	16b\)	16b\	.	.	.	.	8a/J	8ee\J	.	.	16b\	16b\
.	.	16a\JJ	16a\JJ)	.	.	.	.	.	.	.	.	16a\JJ	16a\JJ
=9	=9	=9	=9	=9	=9	=9	=9	=9	=9	=9	=9	=9	=9
!	!	!	!LO:TX:a:t=P:problem=mixed beam	!	!	!	!	!	!	!	!	!	!LO:TX:a:t=P:problem=mixed beam
4E\	.	8e/L	8.e\L	4B\	San-	4ee\	San-	4ee\	4ee\	2.ryy	2.ryy	8e/L	8e/L
.	.	8b/	.	.	.	.	.	.	.	.	.	8b/	8dd\
.	.	.	16bb\Jk	.	.	.	.	.	.	.	.	.	.
4E\	.	8b/	2dd\	2B\	-ctus	2dd\	-ctus	4ee\	4ee\	.	.	8b/	8dd\
.	.	8b/	.	.	.	.	.	.	.	.	.	8b/	8dd\
4E\	.	8b/	.	.	.	.	.	4ee\	4ee\	.	.	8b/	8dd\
.	.	8b/J	.	.	.	.	.	.	.	.	.	8b/J	8dd\J
=10	=10	=10	=10	=10	=10	=10	=10	=10	=10	=10	=10	=10	=10
4A\	.	8a\L	8.cc#\L	4A\	Do-	4cc#\	Do-	4a/	4ee\	2.ryy	2.ryy	8a\L	8cc#\L
.	.	8ee\	.	.	.	.	.	.	.	.	.	8ee\	8gg\
.	.	.	16a\Jk	.	.	.	.	.	.	.	.	.	.
4A\	.	8ee\	2ggn\	4c#\	-mi-	4ee\	-mi-	4a/	4ee\	.	.	8ee\	8gg\
.	.	8ee\	.	.	.	.	.	.	.	.	.	8ee\	8gg\
4A\	.	8ee\	.	4c#\	-nus	4ee\	-nus	4a/	4ee\	.	.	8ee\	8gg\
.	.	8ee\J	.	.	.	.	.	.	.	.	.	8ee\J	8gg\J
!	!	!LO:LB:g=original	!	!	!	!	!	!	!	!	!	!LO:LB:g=original	!
=11	=11	=11	=11	=11	=11	=11	=11	=11	=11	=11	=11	=11	=11
4D\	.	8dd\L	8.ff#\L	4d\	De-	4ff#\	De-	4dd\	4ff#\	2.ryy	2.ryy	8dd\L	8dd\L
.	.	8ff#\	.	.	.	.	.	.	.	.	.	8ff#\	8ff#\
.	.	.	16dd\Jk	.	.	.	.	.	.	.	.	.	.
4D\	.	8aa\	2cccn\	2d\	-us	2ff#\	-us	4dd\	4ff#\	.	.	8aa\	8aa\
.	.	8aa\	.	.	.	.	.	.	.	.	.	8aa\	8aa\
4D\	.	8aa\	.	.	.	.	.	4dd\	4ff#\	.	.	8aa\	8aa\
.	.	8aa\J	.	.	.	.	.	.	.	.	.	8aa\J	8aa\J
!	!	!	!LO:LB:g=original	!	!	!	!	!	!	!	!	!	!LO:LB:g=original
=12	=12	=12	=12	=12	=12	=12	=12	=12	=12	=12	=12	=12	=12
*	*	*	*Xtuplet	*	*	*	*	*	*	*	*	*	*
4G\	.	4gg\	12bb\L	4e\	Sa-	(4gg\	Sa-	4ee\	4gg\	2.ryy	2.ryy	4gg\	4bb\
.	.	.	12ccc#\	.	.	.	.	.	.	.	.	.	.
.	.	.	12ddd\J	.	.	.	.	.	.	.	.	.	.
4A\	.	4dd\	4ff#\	4d\	-ba-	4ff#\)	-ba-	4dd\	4ff#\	.	.	4dd\	4ff#\
!	!	!	!	!	!LO:SIC:s=oth	!	!LO:SIC:s=oth	!	!	!	!	!	!
4AA/	.	4cc#\	4ee\	4c#\	-otch	4ee\	-otch	4a/	4ee\	.	.	4cc#\	4ee\
=13	=13	=13	=13	=13	=13	=13	=13	=13	=13	=13	=13	=13	=13
4D/	.	4dd\	4dd\	4d\	ple-	4dd\	ple-	4f#/	4dd\	2.ryy	2.ryy	4dd\	4ff#\
4BB/	.	4dd\	4ff#\	4B\	-ni	4dd\	-ni	4ff#\	4ff#\	.	.	4dd\	4ff#\
4D/	.	4dd\	4bb\	4B\	sunt	4dd\	sunt	4ff#\	4ff#\	.	.	4dd\	4ff#\
!	!	!	!	!LO:LB:g=original	!	!LO:LB:g=original	!	!	!	!	!	!	!
=14	=14	=14	=14	=14	=14	=14	=14	=14	=14	=14	=14	=14	=14
!	!	!	!	!	!LO:SIC:s=cae	!	!LO:SIC:s=cae	!	!	!	!	!	!
4F#\	.	8.cc#\L	8.aa#X\L	4A#X/	ce-	4cc#\	ce-	4ff#\	4ff#\	2.ryy	2.ryy	8.cc#\L	8.ee\L
.	.	16ee\Jk	16ggn\Jk	.	.	.	.	.	.	.	.	16ee\K	16gg\K
4F#\	.	8.dd\L	8.ff#\L	4A#/	-li	4cc#\	-li	8ff#\L	8ff#\L	.	.	8.dd\	8.ff#\
.	.	.	.	.	.	.	.	8ff#\	8ff#\	.	.	.	.
.	.	16cc#\Jk	16ee\Jk	.	.	.	.	.	.	.	.	16cc#\K	16ee\K
4F#\	.	8.b\L	8.dd\L	4A#/	et	4cc#\	et	8ff#\	8ff#\	.	.	8.b\	8.dd\
.	.	.	.	.	.	.	.	8ff#\J	8ff#\J	.	.	.	.
.	.	16a#X\Jk	16cc#\Jk	.	.	.	.	.	.	.	.	16a#X\Jk	16cc#\Jk
!LO:LB:g=original	!	!	!	!	!	!	!	!	!LO:LB:g=original	!	!	!	!
=15	=15	=15	=15	=15	=15	=15	=15	=15	=15	=15	=15	=15	=15
!	!	!	!LO:TUP:a:problem=klamra łukowa, kropka zamiast numeru	!	!	!	!	!	!	!	!	!	!
!	!	!	!	!	!	!	!LO:SIC:s=ter	!	!	!	!	!	!
4B\	.	4b/	12dd\L	4B\	ter-	4dd\	te-	4ff#\	4ff#\	2.ryy	2.ryy	4b\	4dd\
.	.	.	12cc#\	.	.	.	.	.	.	.	.	.	.
.	.	.	12b\J	.	.	.	.	.	.	.	.	.	.
4F#\	.	2a#X/	2cc#m\	2A#X\	.	2cc#\	.	4ff#\	4ff#\	.	.	2a#X/	2cc#\
4F#\	.	.	.	.	.	.	.	4ff#\	4ff#\	.	.	.	.
!	!	!	!	!	!	!	!	!LO:LB:g=original	!	!	!	!	!
=16	=16	=16	=16	=16	=16	=16	=16	=16	=16	=16	=16	=16	=16
!	!	!	!	!	!	!	!	!	!	!	!	!LO:TX:a:t=Solo	!LO:TX:a:t=Solo
4BB/	.	4b\	4b\	4B\	-ra	4dd\	-ra	4ff#\	4ff#\	2.ryy	2.ryy	8b\L	8dd\L
.	.	.	.	.	.	.	.	.	.	.	.	16dd\L	16ff#\L
.	.	.	.	.	.	.	.	.	.	.	.	16cc#\JJ	16ee\JJ
4F#\	.	4r	4r	4r	.	4r	.	4r	4r	.	.	8b\L	8dd`\L
.	.	.	.	.	.	.	.	.	.	.	.	8dd\	8ff#`\
4FF#/	.	4r	4r	4r	.	4r	.	4r	4r	.	.	8cc#\	8ee`\
.	.	.	.	.	.	.	.	.	.	.	.	8a#X\J	8cc#`\J
=17	=17	=17	=17	=17	=17	=17	=17	=17	=17	=17	=17	=17	=17
!	!	!	!	!	!	!	!	!LO:N:vis=0	!LO:N:vis=0	!	!	!	!
4BB/	.	8r	8r	2.r	.	2.r	.	1.r	1.r	2.ryy	2.ryy	4b\	4dd\
.	.	16dd\LL	(16ff#\LL	.	.	.	.	.	.	.	.	.	.
.	.	16cc#\JJ	16ee\JJ)	.	.	.	.	.	.	.	.	.	.
4F#\	.	8b\L	8dd`\L	.	.	.	.	.	.	.	.	4r	4r
.	.	8dd\	8ff#`\	.	.	.	.	.	.	.	.	.	.
4FF#/	.	8cc#\	8ee`\	.	.	.	.	.	.	.	.	4r	4r
.	.	8a#X\J	8cc#`\J	.	.	.	.	.	.	.	.	.	.
=18	=18	=18	=18	=18	=18	=18	=18	=18	=18	=18	=18	=18	=18
4BB/	.	8.b\L	8.dd\L	4r	.	4r	.	.	.	2.ryy	2.ryy	8.b\L	8.dd\L
.	.	16f#\Jk	16b\Jk	.	.	.	.	.	.	.	.	16f#\K	16b\K
4B\	.	8.b\L	8.dd#X\L	4f#\	glo-	4dd#X\	glo-	.	.	.	.	8.b\	8.dd#X\
.	.	16dd#X\K	16ff#\Jk	.	.	.	.	.	.	.	.	16dd#X\K	16ff#\K
4B\	.	8.ff#\	8.aa\L	8f#\	-ri-	8dd#\L	-ri-	.	.	.	.	8.ff#\	8.aa\
.	.	.	.	8f#\	-a	8dd#\J	-a	.	.	.	.	.	.
.	.	16dd#\Jk	16ff#\Jk	.	.	.	.	.	.	.	.	16dd#X\Jk	16ff#\Jk
=19	=19	=19	=19	=19	=19	=19	=19	=19	=19	=19	=19	=19	=19
*	*	*	*	*	*	*	*	*	*	*	*	*	*Xtuplet
!	!	!	!LO:TUP:a:problem=klamra łukowa, kropka zamiast numeru	!	!	!	!	!	!	!	!	!	!
4E\	.	4ee\	12gg\L	4g\	tu-	4ee\	tu-	2.r	2.r	2.ryy	2.ryy	4ee\	12gg\L
.	.	.	12ff#\	.	.	.	.	.	.	.	.	.	12ff#\
.	.	.	12ee\J	.	.	.	.	.	.	.	.	.	12ee\J
4B\	.	2dd#X\	2ff#\	2f#\	.	2dd#X\	.	.	.	.	.	2dd#X\	2ff#\
4BB/	.	.	.	.	.	.	.	.	.	.	.	.	.
=20	=20	=20	=20	=20	=20	=20	=20	=20	=20	=20	=20	=20	=20
!	!	!LO:TX:a:t=P:problem=mixed beam	!	!	!	!	!	!	!	!	!	!LO:TX:a:t=P:problem=mixed beam	!
4E\	.	8.ee\L	8.ee\L	4g\	-a	4ee\	-a	4r	4r	2.ryy	2.ryy	8.ee\L	8.ee\L
.	.	16e/Jk	16a\Jk	.	.	.	.	.	.	.	.	16e/Jk	16a\K
4A\	.	8.a\L	8.cc#\L	4c#\	glo-	4ee\	glo-	4a/	4ee\	.	.	8.a\L	8.cc#\
.	.	16cc#\Jk	16ee\K	.	.	.	.	.	.	.	.	16cc#\K	16ee\K
4A\	.	8.ee\L	8.gg\	8c#\	-ri-	8ee\	-ri-	4a/	4ee\	.	.	8.ee\	8.gg\
.	.	.	.	8c#\	-a	8ee\	-a	.	.	.	.	.	.
.	.	16cc#\Jk	16ee\Jk	.	.	.	.	.	.	.	.	16cc#\Jk	16ee\Jk
=21	=21	=21	=21	=21	=21	=21	=21	=21	=21	=21	=21	=21	=21
!	!	!	!LO:TUP:a:problem=klamra łukowa, kropka zamiast numeru	!	!	!	!	!	!	!	!	!	!
4D\	.	4dd\	12ff#\L	4d\	tu-	4ff#\	tu-	4dd\	4ff#\	2.ryy	2.ryy	4ddn\	12ff#\L
.	.	.	12ee\	.	.	.	.	.	.	.	.	.	12ee\
.	.	.	12dd\J	.	.	.	.	.	.	.	.	.	12dd\J
4A\	.	2cc#\	2eeM\	2c#\	.	2ff#\	.	4a/	4ee\	.	.	2cc#\	2ee\
4AA/	.	.	.	.	.	.	.	4a/	4ee\	.	.	.	.
!	!	!	!	!	!	!	!	!	!	!	!	!LO:LB:g=original	!
=22	=22	=22	=22	=22	=22	=22	=22	=22	=22	=22	=22	=22	=22
4D\	.	4dd\	16dd`\LL	4d\	-a	4ff#\	-a	4dd\	4ff#\	2.ryy	2.ryy	4dd\	16dd\LL
.	.	.	(16dd\	.	.	.	.	.	.	.	.	.	16dd\
.	.	.	16cc#\	.	.	.	.	.	.	.	.	.	16cc#\
.	.	.	16dd\JJ)	.	.	.	.	.	.	.	.	.	16dd\JJ
4F#\	.	4a/	16a/LL	4d\	glo-	4a\	glo-	4r	4r	.	.	4a/	16a/LL
.	.	.	16f#/	.	.	.	.	.	.	.	.	.	16g/
.	.	.	16e/	.	.	.	.	.	.	.	.	.	16f#/
.	.	.	16d/JJ	.	.	.	.	.	.	.	.	.	16e/JJ
4D\	.	4a/	8dd\L	4d\	-ri-	4a\	-ri-	4r	4r	.	.	4a/	8dd\L
.	.	.	8ccn\J	.	.	.	.	.	.	.	.	.	8ccn\J
!	!	!	!LO:LB:g=original	!LO:LB:g=original	!	!LO:LB:g=original	!	!	!	!	!	!	!LO:LB:g=original
=23	=23	=23	=23	=23	=23	=23	=23	=23	=23	=23	=23	=23	=23
!	!	!	!	!	!	!	!	!LO:N:vis=0	!LO:N:vis=0	!	!	!	!
4G\	.	4b/	16b`\LL	4d\	-a	4b\	-a	1.r	1.r	2.ryy	2.ryy	4b\	16b\LL
.	.	.	(16ee\	.	.	.	.	.	.	.	.	.	16ee\
.	.	.	16dd#X\	.	.	.	.	.	.	.	.	.	16dd#X\
.	.	.	16ee\JJ)	.	.	.	.	.	.	.	.	.	16ee\JJ
4G#X\	.	4b/	16b`/LL	4e\	glo-	4b\	glo-	.	.	.	.	4b\	16b\LL
.	.	.	(16g#X/	.	.	.	.	.	.	.	.	.	16g#X\
.	.	.	16f#/)	.	.	.	.	.	.	.	.	.	16f#\
.	.	.	16e/JJ	.	.	.	.	.	.	.	.	.	16e\JJ
4E\	.	4b/	8ee\L	4e\	-ri-	4b\	-ri-	.	.	.	.	4b\	8ee\L
.	.	.	8ddn\J	.	.	.	.	.	.	.	.	.	8ddn\J
!	!	!LO:LB:g=original	!	!	!	!	!	!	!	!	!	!	!
=24	=24	=24	=24	=24	=24	=24	=24	=24	=24	=24	=24	=24	=24
4A\	.	4cc#\	16cc#`\LL	4e\	-a	4cc#\	-a	.	.	2.ryy	2.ryy	4cc#\	16cc#\LL
.	.	.	(16ff#\	.	.	.	.	.	.	.	.	.	16ff#\
.	.	.	16ee\	.	.	.	.	.	.	.	.	.	16ee\
.	.	.	16ff#\JJ)	.	.	.	.	.	.	.	.	.	16ff#\JJ
4A#X\	.	4cc#\	16cc#`/LL	4f#\	glo-	4cc#\	glo-	.	.	.	.	4cc#\	16cc#/LL
.	.	.	(16a#X/	.	.	.	.	.	.	.	.	.	16a#X/
.	.	.	16g#X/)	.	.	.	.	.	.	.	.	.	16g#X/
.	.	.	16f#/JJ	.	.	.	.	.	.	.	.	.	16f#/JJ
4F#\	.	4cc#\	8ff#\L	4f#\	-ri-	4cc#\	-ri-	.	.	.	.	4cc#\	8ff#\L
.	.	.	8ee\J	.	.	.	.	.	.	.	.	.	8ee\J
=25	=25	=25	=25	=25	=25	=25	=25	=25	=25	=25	=25	=25	=25
4B\	.	4dd\	16ddn`\LL	4f#\	-a	4dd\	-a	2.r	2.r	2.ryy	2.ryy	4dd\	16ddn\LL
.	.	.	(16gg\	.	.	.	.	.	.	.	.	.	16gg\
.	.	.	16ff#\	.	.	.	.	.	.	.	.	.	16ff#\
.	.	.	16gg\JJ)	.	.	.	.	.	.	.	.	.	16gg\JJ
4B\	.	4dd\	16dd`\LL	4g\	glo-	4dd\	glo-	.	.	.	.	4dd\	16dd\LL
.	.	.	(16b\	.	.	.	.	.	.	.	.	.	16b\
.	.	.	16a\	.	.	.	.	.	.	.	.	.	16a\
.	.	.	16g\JJ)	.	.	.	.	.	.	.	.	.	16g\JJ
4Gn\	.	4dd\	8gg\L	4g\	-ri-	4dd\	-ri-	.	.	.	.	4dd\	8gg\L
.	.	.	8ff#\J	.	.	.	.	.	.	.	.	.	8ff#\J
=26	=26	=26	=26	=26	=26	=26	=26	=26	=26	=26	=26	=26	=26
4c#\	.	4ee\	16ee`\LL	4g\	-a	4ee\	-a	4r	4r	2.ryy	2.ryy	4ee\	16ee\LL
.	.	.	(16aa\	.	.	.	.	.	.	.	.	.	16aa\
.	.	.	16gg#X\	.	.	.	.	.	.	.	.	.	16gg#X\
.	.	.	16aa\JJ)	.	.	.	.	.	.	.	.	.	16aa\JJ
4c#\	.	4ee\	16ee`\LL	4c#\	glo-	4ee\	glo-	4a/	4ee\	.	.	4ee\	16ee\LL
.	.	.	(16cc#\	.	.	.	.	.	.	.	.	.	16cc#\
.	.	.	16b\	.	.	.	.	.	.	.	.	.	16b\
.	.	.	16a\JJ)	.	.	.	.	.	.	.	.	.	16a\JJ
4A\	.	4ee\	8aa\L	4c#\	-ri-	4ee\	-ri-	4a/	4ee\	.	.	4ee\	8aa\L
.	.	.	8ggn\J	.	.	.	.	.	.	.	.	.	8ggn\J
=27	=27	=27	=27	=27	=27	=27	=27	=27	=27	=27	=27	=27	=27
!	!	!	!LO:TUP:a:problem=klamra łukowa, kropka zamiast numeru	!	!	!	!	!	!	!	!	!	!
4d\	.	4dd\	12ff#\L	4d\	-a	4ff#\	-a	4dd\	4ff#\	2.ryy	2.ryy	4dd\	12ff#\L
.	.	.	12ee\	.	.	.	.	.	.	.	.	.	12ee\
.	.	.	12dd\J	.	.	.	.	.	.	.	.	.	12dd\J
4A\	.	2cc#\	2eeM\	2c#\	tu-	2ee\	tu-	4a/	4ee\	.	.	2cc#\	2ee\
4AA/	.	.	.	.	.	.	.	4a/	4ee\	.	.	.	.
!LO:LB:g=original	!	!	!	!	!	!	!	!	!	!	!	!	!
=28	=28	=28	=28	=28	=28	=28	=28	=28	=28	=28	=28	=28	=28
!	!LO:DY:a	!	!	!	!	!	!	!	!	!	!	!	!
4D\	p	4dd\	4dd\	4d\	-a	4ff#\	-a	8dd\L	8ff#\L	2.ryy	2.ryy	4dd\	4dd\
.	.	.	.	.	.	.	.	16ff#\L	16aa\L	.	.	.	.
.	.	.	.	.	.	.	.	16ee\JJ	16gg\JJ	.	.	.	.
4A\	.	4r	4r	4r	.	4r	.	8dd\L	8ff#\L	.	.	4r	4r
.	.	.	.	.	.	.	.	8ff#\	8aa\	.	.	.	.
!	!	!	!	!	!	!	!	!	!	!	!	!	!LO:TX:a:t=Solo
4AA/	.	4r	4r	4r	.	4r	.	8ee\	8gg\	.	.	4r	4r
.	.	.	.	.	.	.	.	8a\J	8ee\J	.	.	.	.
=29	=29	=29	=29	=29	=29	=29	=29	=29	=29	=29	=29	=29	=29
4D\	.	2.r	2.r	0.r	.	0.r	.	4dd\	4ff#\	2.ryy	2.ryy	8r	8r
!	!	!	!	!	!	!	!	!	!	!	!	!LO:TX:a:t=Solo	!
.	.	.	.	.	.	.	.	.	.	.	.	16ff#\LL	16aa\LL
.	.	.	.	.	.	.	.	.	.	.	.	16ee\JJ	16gg\JJ
4A\	.	.	.	.	.	.	.	4r	4r	.	.	8dd\L	8ff#`\L
.	.	.	.	.	.	.	.	.	.	.	.	8ff#\	8aa`\
4AA/	.	.	.	.	.	.	.	4r	4r	.	.	8ee\	8gg`\
.	.	.	.	.	.	.	.	.	.	.	.	8cc#\J	8ee`\J
=30	=30	=30	=30	=30	=30	=30	=30	=30	=30	=30	=30	=30	=30
4D\	.	8r	8r	.	.	.	.	4r	4r	2.ryy	2.ryy	8dd\L	8dd`\L
.	.	8dd\L	8dd\L	.	.	.	.	.	.	.	.	8dd\	8dd`\
!	!LO:DY:t=f&colon;	!	!	!	!	!	!	!	!	!	!	!	!
!	!LO:DY:a	!	!	!	!	!	!	!	!	!	!	!	!
4G\	f	8bb\	8bb\	.	.	.	.	4dd\	4dd\	.	.	8bb\	8bb\
.	.	8gg\	8gg\	.	.	.	.	.	.	.	.	8gg\	8gg\
4G\	.	8ee\	8ee\	.	.	.	.	4dd\	4dd\	.	.	8ee\	8ee\
.	.	8dd\J	8dd\J	.	.	.	.	.	.	.	.	8dd\J	8dd\J
=31	=31	=31	=31	=31	=31	=31	=31	=31	=31	=31	=31	=31	=31
4A\	.	8cc#\L	8cc#\L	.	.	.	.	4a/	4ee\	2.ryy	2.ryy	8cc#\L	8cc#\L
.	.	8dd\J	8dd\J	.	.	.	.	.	.	.	.	8dd\J	8dd\J
4A\	.	4f#/	4f#/	.	.	.	.	4dd\	4ff#\	.	.	4f#/	4f#/
4AA/	.	4e/	4e/	.	.	.	.	4a/	4ee\	.	.	4e/	4e/
=32	=32	=32	=32	=32	=32	=32	=32	=32	=32	=32	=32	=32	=32
2.D\	.	2d/	2d/	.	.	.	.	2f#/	2dd\	2.ryy	2.ryy	2d/	2d/
.	.	4r	4r	.	.	.	.	4r	4r	.	.	4r	4r
!	!	!LO:LB:g=original	!LO:LB:g=original	!LO:LB:g=original	!	!LO:LB:g=original	!	!LO:LB:g=original	!LO:LB:g=original	!	!	!	!
=33	=33	=33	=33	=33	=33	=33	=33	=33	=33	=33	=33	=33	=33
*M2/4	*	*M2/4	*M2/4	*M2/4	*	*M2/4	*	*M2/4	*M2/4	*M2/4	*M2/4	*M2/4	*M2/4
!LO:TX:b:t=Osanna	!LO:DY:t=p&colon;	!LO:TX:b:t=Osanna	!LO:TX:b:t=Osanna	!	!	!	!	!	!	!	!	!	!
!LO:TX:a:t=All(egr)o Solo	!LO:DY:a	!LO:TX:a:t=All(egr)o&colon;	!LO:TX:a:t=All(egr)o&colon;	!LO:TX:a:t=All(egr)o	!	!	!	!LO:TX:a:t=All(egr)o&colon;	!LO:TX:a:t=Allo	!	!	!	!
!	!	!LO:N:vis=0	!LO:N:vis=0	!	!	!	!	!	!	!	!	!	!
8D\L	p	1r	1r	0r	.	8g/	O-	0r	0r	2ryy	2ryy	2ryy	2ryy
8E\	.	.	.	.	.	4dd\	-san-	.	.	.	.	.	.
8F#\	.	.	.	.	.	.	.	.	.	.	.	.	.
8G\J	.	.	.	.	.	8b\	-na	.	.	.	.	.	.
=34	=34	=34	=34	=34	=34	=34	=34	=34	=34	=34	=34	=34	=34
8D\L	.	.	.	.	.	8a\	in	.	.	2ryy	2ryy	2ryy	2ryy
8E\	.	.	.	.	.	4dd\	.	.	.	.	.	.	.
8F#\	.	.	.	.	.	.	.	.	.	.	.	.	.
8G\J	.	.	.	.	.	8b\	ex-	.	.	.	.	.	.
=35	=35	=35	=35	=35	=35	=35	=35	=35	=35	=35	=35	=35	=35
8F#\L	.	2r	2r	.	.	8a\L	.	.	.	2ryy	2ryy	2ryy	2ryy
8D\	.	.	.	.	.	16g\L	-cel-	.	.	.	.	.	.
.	.	.	.	.	.	16f#\JJ	.	.	.	.	.	.	.
8E\	.	.	.	.	.	4gT\	.	.	.	.	.	.	.
8AA\J	.	.	.	.	.	.	.	.	.	.	.	.	.
=36	=36	=36	=36	=36	=36	=36	=36	=36	=36	=36	=36	=36	=36
!	!LO:DY:a	!	!	!	!	!	!	!	!	!	!	!	!
8D\L	p	8d/	8d/	.	.	4f#/	-sis	.	.	2ryy	2ryy	2ryy	2ryy
8E\	.	4dd\	4dd\	.	.	.	.	.	.	.	.	.	.
8F#\	.	.	.	.	.	4r	.	.	.	.	.	.	.
8G\J	.	8b\	8b\	.	.	.	.	.	.	.	.	.	.
=37	=37	=37	=37	=37	=37	=37	=37	=37	=37	=37	=37	=37	=37
!	!	!	!	!	!	!LO:N:vis=0	!	!	!	!	!	!	!
8D\L	.	8a/	8a/	0r	.	1r	.	0r	0r	2ryy	2ryy	2ryy	2ryy
8E\	.	4dd\	4dd\	.	.	.	.	.	.	.	.	.	.
8F#\	.	.	.	.	.	.	.	.	.	.	.	.	.
8G\J	.	8b\	8b\	.	.	.	.	.	.	.	.	.	.
=38	=38	=38	=38	=38	=38	=38	=38	=38	=38	=38	=38	=38	=38
!LO:TX:a:t=P:problem=mixed beam	!	!	!	!	!	!	!	!	!	!	!	!	!
8D\L	.	16a\LL	(16a\LL	.	.	.	.	.	.	2ryy	2ryy	2ryy	2ryy
.	.	16dd\	16dd\)	.	.	.	.	.	.	.	.	.	.
8F#\	.	16ff#\	(16ff#\	.	.	.	.	.	.	.	.	.	.
.	.	16aa\JJ	16aa\JJ)	.	.	.	.	.	.	.	.	.	.
.	.	8qqaa/	8qqaa/	.	.	.	.	.	.	.	.	.	.
8E\	.	4gg\	4gg\	.	.	.	.	.	.	.	.	.	.
8AA/J	.	.	.	.	.	.	.	.	.	.	.	.	.
=39	=39	=39	=39	=39	=39	=39	=39	=39	=39	=39	=39	=39	=39
8D\L	.	4ff#\	4ff#\	.	.	4r	.	.	.	2ryy	2ryy	2ryy	2ryy
8E\	.	.	.	.	.	.	.	.	.	.	.	.	.
8F#\	.	4r	4r	.	.	8r	.	.	.	.	.	.	.
!	!LO:DY:t=p&colon;	!	!	!	!	!	!	!	!	!	!	!	!
!	!LO:DY:a	!	!	!	!	!	!	!	!	!	!	!	!
8C#\J	p	.	.	.	.	8ee\	o-	.	.	.	.	.	.
=40	=40	=40	=40	=40	=40	=40	=40	=40	=40	=40	=40	=40	=40
!	!	!LO:N:vis=0	!LO:N:vis=0	!	!	!	!	!	!	!	!	!	!
8D\L	.	1r	1r	.	.	16ff#\LL	-san-	.	.	2ryy	2ryy	2ryy	2ryy
.	.	.	.	.	.	16dd\JJ	.	.	.	.	.	.	.
8D\	.	.	.	.	.	4a\	.	.	.	.	.	.	.
8D\	.	.	.	.	.	.	.	.	.	.	.	.	.
8D\J	.	.	.	.	.	8ff#\	-na	.	.	.	.	.	.
=41	=41	=41	=41	=41	=41	=41	=41	=41	=41	=41	=41	=41	=41
8C#/L	.	.	.	0r	.	16ee\LL	in	0r	0r	2ryy	2ryy	2ryy	2ryy
.	.	.	.	.	.	16cc#\JJ	.	.	.	.	.	.	.
8C#/	.	.	.	.	.	4a\	.	.	.	.	.	.	.
8C#/	.	.	.	.	.	.	.	.	.	.	.	.	.
8E/J	.	.	.	.	.	8dd\	ex-	.	.	.	.	.	.
=42	=42	=42	=42	=42	=42	=42	=42	=42	=42	=42	=42	=42	=42
!LO:TX:a:t=P:problem=mixed beam	!	!	!	!	!	!	!	!	!	!	!	!	!
8A\L	.	2r	2r	.	.	8cc#\L	-cel-	.	.	2ryy	2ryy	2ryy	2ryy
8C#/	.	.	.	.	.	16b\L	.	.	.	.	.	.	.
.	.	.	.	.	.	16a\JJ	.	.	.	.	.	.	.
8D/	.	.	.	.	.	4bT\	.	.	.	.	.	.	.
8E/J	.	.	.	.	.	.	.	.	.	.	.	.	.
=43	=43	=43	=43	=43	=43	=43	=43	=43	=43	=43	=43	=43	=43
!	!LO:DY:a	!	!	!	!	!	!	!	!	!	!	!	!
8AA/L	p	4r	4r	.	.	4a\	-sis	.	.	2ryy	2ryy	2ryy	2ryy
8BB/	.	.	.	.	.	.	.	.	.	.	.	.	.
8C#/	.	8r	8r	.	.	4r	.	.	.	.	.	.	.
8C#/J	.	8ee\	8ee\	.	.	.	.	.	.	.	.	.	.
!	!	!	!	!	!	!LO:LB:g=original	!	!	!	!	!	!	!
=44	=44	=44	=44	=44	=44	=44	=44	=44	=44	=44	=44	=44	=44
8D\L	.	16ff#\LL	16ff#\LL	.	.	0r	.	.	.	2ryy	2ryy	2ryy	2ryy
.	.	16dd\J	16dd\J	.	.	.	.	.	.	.	.	.	.
8D\	.	8bb\J	[8bb\J	.	.	.	.	.	.	.	.	.	.
8D\	.	16bb\LL	16bb\LL]	.	.	.	.	.	.	.	.	.	.
.	.	16aa\	16aa\	.	.	.	.	.	.	.	.	.	.
8D\J	.	16gg#X\	16gg#X\	.	.	.	.	.	.	.	.	.	.
.	.	16ff#\JJ	16ff#\JJ	.	.	.	.	.	.	.	.	.	.
=45	=45	=45	=45	=45	=45	=45	=45	=45	=45	=45	=45	=45	=45
!	!	!	!	!LO:N:vis=0	!	!	!	!	!	!	!	!	!
8E\L	.	8gg#X\	16gg#X\LL	1r	.	.	.	0r	0r	2ryy	2ryy	2ryy	2ryy
.	.	.	16bb\JJ	.	.	.	.	.	.	.	.	.	.
8E\	.	4b/	4dd\	.	.	.	.	.	.	.	.	.	.
8E\	.	.	.	.	.	.	.	.	.	.	.	.	.
8E\J	.	16a/LL	(16cc#\LL	.	.	.	.	.	.	.	.	.	.
.	.	16g#X/JJ	16b\JJ)	.	.	.	.	.	.	.	.	.	.
!LO:LB:g=original	!	!	!	!	!	!	!	!	!	!	!	!	!
=46	=46	=46	=46	=46	=46	=46	=46	=46	=46	=46	=46	=46	=46
8E\L	.	8b/	16gg#X\LL	.	.	.	.	.	.	2ryy	2ryy	2ryy	2ryy
.	.	.	16bb\JJ	.	.	.	.	.	.	.	.	.	.
8E\	.	4b/	4dd\	.	.	.	.	.	.	.	.	.	.
8E\	.	.	.	.	.	.	.	.	.	.	.	.	.
8E\J	.	16a/LL	16cc#\LL	.	.	.	.	.	.	.	.	.	.
.	.	16g#X/JJ	16b\JJ	.	.	.	.	.	.	.	.	.	.
=47	=47	=47	=47	=47	=47	=47	=47	=47	=47	=47	=47	=47	=47
*	*	*Xtuplet	*	*	*	*	*	*	*	*	*	*	*
!	!	!LO:TUP:a:problem=klamra łukowa	!LO:TUP:a:problem=klamra łukowa, kropka zamiast numeru	!	!	!	!	!	!	!	!	!	!
!	!	!	!	!LO:TX:a:t=Solo	!	!	!	!	!	!	!	!	!
8AA/L	.	24cc#\LL	24cc#\LL	2r	.	.	.	.	.	2ryy	2ryy	2ryy	2ryy
.	.	24ee\	24ee\	.	.	.	.	.	.	.	.	.	.
.	.	24aa\JJ	24aa\JJ	.	.	.	.	.	.	.	.	.	.
!	!	!LO:TUP:a:problem=klamra łukowu	!LO:TUP:a:problem=klamra łukowa, kropka zamiast numeru	!	!	!	!	!	!	!	!	!	!
8C#/J	.	24cc#\LL	24cc#\LL	.	.	.	.	.	.	.	.	.	.
.	.	24b\	24b\	.	.	.	.	.	.	.	.	.	.
.	.	24a\JJ	24a\JJ	.	.	.	.	.	.	.	.	.	.
!LO:TX:a:t=P:problem=mixed beam	!	!	!	!	!	!	!	!	!	!	!	!	!
8E\L	.	4bM\	4bM\	.	.	.	.	.	.	.	.	.	.
8EE/J	.	.	.	.	.	.	.	.	.	.	.	.	.
!	!	!LO:LB:g=original	!	!	!	!	!	!	!	!	!	!	!
=48	=48	=48	=48	=48	=48	=48	=48	=48	=48	=48	=48	=48	=48
!	!LO:DY:a	!	!	!	!	!	!	!	!	!	!	!	!
8AA/L	p	4a/	4a/	8A/	O-	0r	.	.	.	2ryy	2ryy	2ryy	2ryy
8BB/	.	.	.	4a\	-san-	.	.	.	.	.	.	.	.
8C#/	.	4r	4r	.	.	.	.	.	.	.	.	.	.
8D/J	.	.	.	8f#\	-na	.	.	.	.	.	.	.	.
=49	=49	=49	=49	=49	=49	=49	=49	=49	=49	=49	=49	=49	=49
!	!	!LO:N:vis=0	!LO:N:vis=0	!	!	!	!	!	!	!	!	!	!
8AA/L	.	1r	1r	8e\	in	.	.	0r	0r	2ryy	2ryy	2ryy	2ryy
8BB/	.	.	.	4a\	ex-	.	.	.	.	.	.	.	.
8C#/	.	.	.	.	.	.	.	.	.	.	.	.	.
8D/J	.	.	.	8f#\	.	.	.	.	.	.	.	.	.
=50	=50	=50	=50	=50	=50	=50	=50	=50	=50	=50	=50	=50	=50
8C#/L	.	.	.	8e\L	-cel-	.	.	.	.	2ryy	2ryy	2ryy	2ryy
8AA/	.	.	.	16d\L	.	.	.	.	.	.	.	.	.
.	.	.	.	16c#\JJ	.	.	.	.	.	.	.	.	.
8BB/	.	.	.	4d\	.	.	.	.	.	.	.	.	.
8E/J	.	.	.	.	.	.	.	.	.	.	.	.	.
=51	=51	=51	=51	=51	=51	=51	=51	=51	=51	=51	=51	=51	=51
!	!LO:DY:a	!	!	!	!	!	!	!	!	!	!	!	!
8AA/L	f	8a/	8a/	4c#\	-sis	.	.	.	.	2ryy	2ryy	2ryy	2ryy
8BB/	.	4aa\	4aa\	.	.	.	.	.	.	.	.	.	.
8C#/	.	.	.	4r	.	.	.	.	.	.	.	.	.
8D/J	.	8ff#\	8ff#\	.	.	.	.	.	.	.	.	.	.
=52	=52	=52	=52	=52	=52	=52	=52	=52	=52	=52	=52	=52	=52
!	!	!	!	!LO:N:vis=0	!	!	!	!	!	!	!	!	!
8AA/L	.	8ee\	8ee\	1r	.	0r	.	.	.	2ryy	2ryy	2ryy	2ryy
8BB/	.	4aa\	4aa\	.	.	.	.	.	.	.	.	.	.
8C#/	.	.	.	.	.	.	.	.	.	.	.	.	.
8D/J	.	8ff#\	8ff#\	.	.	.	.	.	.	.	.	.	.
=53	=53	=53	=53	=53	=53	=53	=53	=53	=53	=53	=53	=53	=53
8C#/L	.	16ee\LL	(16ee\LL	.	.	.	.	0r	0r	2ryy	2ryy	2ryy	2ryy
.	.	16aa\	16aa\)	.	.	.	.	.	.	.	.	.	.
8AA/	.	16ee\	(16ee\	.	.	.	.	.	.	.	.	.	.
.	.	16cc#\JJ	16cc#\JJ)	.	.	.	.	.	.	.	.	.	.
8BB/	.	4dd\	4ddM\	.	.	.	.	.	.	.	.	.	.
8E/J	.	.	.	.	.	.	.	.	.	.	.	.	.
!	!	!	!LO:LB:g=original	!	!	!	!	!	!	!	!	!	!
=54	=54	=54	=54	=54	=54	=54	=54	=54	=54	=54	=54	=54	=54
8AA/L	.	4cc#\	4cc#\	4r	.	.	.	.	.	2ryy	2ryy	2ryy	2ryy
16AA/L	.	.	.	.	.	.	.	.	.	.	.	.	.
16BB/JJ	.	.	.	.	.	.	.	.	.	.	.	.	.
!	!LO:DY:t=pia	!	!	!	!	!	!	!	!	!	!	!	!
!	!LO:DY:a	!	!	!	!	!	!	!	!	!	!	!	!
8C#/L	p	4r	4r	8r	.	.	.	.	.	.	.	.	.
8F#/J	.	.	.	8A/	o-	.	.	.	.	.	.	.	.
=55	=55	=55	=55	=55	=55	=55	=55	=55	=55	=55	=55	=55	=55
!	!	!LO:N:vis=0	!LO:N:vis=0	!	!	!	!	!	!	!	!	!	!
8G\L	.	1r	1r	(16B\LL	-san-	.	.	.	.	2ryy	2ryy	2ryy	2ryy
.	.	.	.	16d\)	.	.	.	.	.	.	.	.	.
8A\	.	.	.	(16c#\	.	.	.	.	.	.	.	.	.
.	.	.	.	16e\JJ)	-na	.	.	.	.	.	.	.	.
8B\	.	.	.	(16d\LL	.	.	.	.	.	.	.	.	.
.	.	.	.	16f#\)	in	.	.	.	.	.	.	.	.
8c#\J	.	.	.	(16e\	.	.	.	.	.	.	.	.	.
.	.	.	.	16g\JJ)	ex-	.	.	.	.	.	.	.	.
=56	=56	=56	=56	=56	=56	=56	=56	=56	=56	=56	=56	=56	=56
!	!	!	!	!	!	!LO:N:vis=0	!	!	!	!	!	!	!
8d\L	.	.	.	8f#\	-cel-	1r	.	.	.	2ryy	2ryy	2ryy	2ryy
8A\	.	.	.	8e\	-sis	.	.	.	.	.	.	.	.
8e\	.	.	.	8g\	in	.	.	.	.	.	.	.	.
8c#\J	.	.	.	8e\	ex-	.	.	.	.	.	.	.	.
!	!	!	!	!LO:LB:g=original	!	!	!	!	!	!	!	!	!
=57	=57	=57	=57	=57	=57	=57	=57	=57	=57	=57	=57	=57	=57
8d\L	.	2r	2r	8f#\L	-cel-	.	.	2r	2r	2ryy	2ryy	2ryy	2ryy
8F#\	.	.	.	16e\L	.	.	.	.	.	.	.	.	.
.	.	.	.	16d\JJ	.	.	.	.	.	.	.	.	.
8G\	.	.	.	4e\	.	.	.	.	.	.	.	.	.
8A\J	.	.	.	.	.	.	.	.	.	.	.	.	.
=58	=58	=58	=58	=58	=58	=58	=58	=58	=58	=58	=58	=58	=58
!	!LO:DY:a	!	!	!	!	!	!	!	!	!	!	!	!
8D\L	f	8dd\	8dd\	8d\	-sis	8a\	o-	8ff#\L	8aa\L	2ryy	2ryy	2ryy	2ryy
8E\	.	4ddd\	4ddd\	8f#\	o-	4a\	-san-	8ff#\	8aa\	.	.	.	.
8F#\	.	.	.	8f#\	-san-	.	.	8ff#\	8aa\	.	.	.	.
8G\J	.	8bb\	8bb\	8g\	-na	8b\	-na	8gg\J	8bb\J	.	.	.	.
=59	=59	=59	=59	=59	=59	=59	=59	=59	=59	=59	=59	=59	=59
8D\L	.	8aa\	8aa\	8f#\	in	8a\	in	8ff#\L	8aa\L	2ryy	2ryy	2ryy	2ryy
8E\	.	4ddd\	4ddd\	4f#\	ex-	4a\	ex-	8ff#\	8aa\	.	.	.	.
8F#\	.	.	.	.	.	.	.	8ff#\	8aa\	.	.	.	.
8G\J	.	8bb\	8bb\	8g\	-cel-	8b\	.	8gg\J	8bb\J	.	.	.	.
!LO:LB:g=original	!	!	!	!	!	!	!	!	!	!	!	!	!
=60	=60	=60	=60	=60	=60	=60	=60	=60	=60	=60	=60	=60	=60
!LO:TX:a:t=P:problem=mixed beam	!	!	!	!	!	!	!	!	!	!	!	!	!
8F#\L	.	8aa\L	8aa\L	4f#\	-sis	(4a\	-cel-	4ff#\	4aa\	2ryy	2ryy	2ryy	2ryy
8D\	.	16gg\L	(16gg\L	.	.	.	.	.	.	.	.	.	.
.	.	16ff#\JJ	16ff#\JJ)	.	.	.	.	.	.	.	.	.	.
8E\	.	4gg\	4gg\	4e\	.	4g\)	.	4ee\	4gg\	.	.	.	.
8AA/J	.	.	.	.	.	.	.	.	.	.	.	.	.
=61	=61	=61	=61	=61	=61	=61	=61	=61	=61	=61	=61	=61	=61
!LO:TX:a:t=P:problem=mixed beam	!	!	!	!	!	!	!	!	!	!	!	!	!
8D/L	.	16ff#\LL	16ff#\LL	4d\	.	4f#/	-sis	8dd\	8ff#\	2ryy	2ryy	2ryy	2ryy
.	.	(16ff#\	16aa\	.	.	.	.	.	.	.	.	.	.
16d\L	.	16dd\)	16ff#\	.	.	.	.	8r	8r	.	.	.	.
16c#\JJ	.	16a\JJ	16dd\JJ	.	.	.	.	.	.	.	.	.	.
!LO:TX:a:t=P:problem=mixed beam	!	!	!	!	!	!	!	!	!	!	!	!	!
8d\L	.	16dd\LL	16ff#\LL	8d\	in	8ff#\	in	8dd\	8ff#\	.	.	.	.
.	.	16ff#\	16aa\	.	.	.	.	.	.	.	.	.	.
8D/J	.	16dd\	16ff#\	8d\	ex-	8ff#\	ex-	8r	8r	.	.	.	.
.	.	16a\JJ	16dd\JJ	.	.	.	.	.	.	.	.	.	.
=62	=62	=62	=62	=62	=62	=62	=62	=62	=62	=62	=62	=62	=62
*	*	*tremolo	*	*	*	*	*	*	*	*	*	*	*
8A\L	.	16cc#\L	16ee`\LL	4c#\	-cel-	4ee\	-cel-	8a/L	8ee\L	2ryy	2ryy	2ryy	2ryy
.	.	16cc#\	16cc#`\J	.	.	.	.	.	.	.	.	.	.
16A\L	.	16cc#\	8a`\J	.	.	.	.	16a/L	16ee\L	.	.	.	.
16G#X\JJ	.	16cc#\J	.	.	.	.	.	16a/JJ	16ee\JJ	.	.	.	.
!LO:TX:a:t=P:problem=mixed beam	!	!	!	!	!	!	!	!	!	!	!	!	!
8A\L	.	16cc#\L	16ee`\LL	8c#\	-sis	8ee\	-sis	8a/L	8ee\L	.	.	.	.
.	.	16cc#\	16cc#`\J	.	.	.	.	.	.	.	.	.	.
8AA/J	.	16cc#\	8a`\J	8c#\	o-	8ee\	o-	8a/J	8ee\J	.	.	.	.
.	.	16cc#\J	.	.	.	.	.	.	.	.	.	.	.
*	*	*Xtremolo	*	*	*	*	*	*	*	*	*	*	*
=63	=63	=63	=63	=63	=63	=63	=63	=63	=63	=63	=63	=63	=63
!LO:TX:a:t=P:problem=mixed beam	!	!	!	!	!	!	!	!	!	!	!	!	!
8D/L	.	16dd\LL	(16ff#\LL	8d\	-san-	8ff#\	-san-	8dd\	8ff#\	2ryy	2ryy	2ryy	2ryy
.	.	16ff#\	16aa\)	.	.	.	.	.	.	.	.	.	.
16d\L	.	16dd\	(16ff#\	8d\	-na	8ff#\	-na	8r	8r	.	.	.	.
16c#\JJ	.	16a\JJ	16dd\JJ)	.	.	.	.	.	.	.	.	.	.
!LO:TX:a:t=P:problem=mixed beam	!	!	!	!	!	!	!	!	!	!	!	!	!
8d\L	.	16dd\LL	(16ff#\LL	8d\	in	8ff#\	.	8dd\	8ff#\	.	.	.	.
.	.	16ff#\	16aa\)	.	.	.	.	.	.	.	.	.	.
!	!	!	!	!	!	!LO:N:vis=8	!	!	!	!	!	!	!
8D/J	.	16dd\	(16ff#\	8d\	ex-	16ff#\	in	8r	8r	.	.	.	.
!	!	!	!	!	!	!LO:N:vis=8	!	!	!	!	!	!	!
.	.	16a\JJ	16dd\JJ)	.	.	16ff#\	ex-	.	.	.	.	.	.
!	!	!LO:LB:g=original	!	!	!	!	!	!	!	!	!	!	!
=64	=64	=64	=64	=64	=64	=64	=64	=64	=64	=64	=64	=64	=64
8A\L	.	8cc#\L	16ee`\LL	8c#\	-cel-	8ee\	-cel-	8a/L	8ee\L	2ryy	2ryy	2ryy	2ryy
.	.	.	16cc#`\J	.	.	.	.	.	.	.	.	.	.
16A\L	.	8cc#\	8a`\J	8c#\	-sis	8ee\	-sis	16a/L	16ee\L	.	.	.	.
16B\JJ	.	.	.	.	.	.	.	16a/JJ	16ee\JJ	.	.	.	.
8c#\L	.	8aa\	8aa\L	8r	.	8r	.	4a/	4ee\	.	.	.	.
8A\J	.	8ee\J	8ee\J	8c#\	o-	8ee\	o-	.	.	.	.	.	.
!	!	!	!	!	!	!LO:LB:g=original	!	!	!	!	!	!	!
=65	=65	=65	=65	=65	=65	=65	=65	=65	=65	=65	=65	=65	=65
8D\L	.	(16ff#\LL	(16ff#\LL	4A/	-san-	4ff#\	-san-	8r	8r	2ryy	2ryy	2ryy	2ryy
.	.	16dd\JJ)	16dd\JJ)	.	.	.	.	.	.	.	.	.	.
8D\	.	4a/	4a/	.	.	.	.	16dd\LL	16ff#\LL	.	.	.	.
.	.	.	.	.	.	.	.	16dd\JJ	16ff#\JJ	.	.	.	.
8D\	.	.	.	4A/	-na	4ff#\	-na	8dd\	4ff#\	.	.	.	.
8D\J	.	8ff#\	8ff#\	.	.	.	.	8r	.	.	.	.	.
!	!	!	!	!LO:LB:g=original	!	!	!	!	!	!	!	!	!
=66	=66	=66	=66	=66	=66	=66	=66	=66	=66	=66	=66	=66	=66
8A\L	.	(16ee\LL	(16ee\LL	4c#\	in	4ee\	in	8r	8r	2ryy	2ryy	2ryy	2ryy
.	.	16cc#\JJ)	16cc#\JJ)	.	.	.	.	.	.	.	.	.	.
8A\	.	4a/	4a/	.	.	.	.	16a/LL	16ee\LL	.	.	.	.
.	.	.	.	.	.	.	.	16a/JJ	16ee\JJ	.	.	.	.
8A\	.	.	.	4c#\	ex-	4ee\	ex-	4a/	4ee\	.	.	.	.
8A\J	.	8ee\	8ee\	.	.	.	.	.	.	.	.	.	.
=67	=67	=67	=67	=67	=67	=67	=67	=67	=67	=67	=67	=67	=67
8E\L	.	(16dd\LL	16dd\LL	2B\	-cel-	2dd\	-cel-	8r	8r	2ryy	2ryy	2ryy	2ryy
.	.	16b\JJ)	16b\JJ	.	.	.	.	.	.	.	.	.	.
8E\	.	4g#X/	4g#X/	.	.	.	.	16ee\LL	16ee\LL	.	.	.	.
.	.	.	.	.	.	.	.	16ee\JJ	16ee\JJ	.	.	.	.
8E\	.	.	.	.	.	.	.	8ee\L	8ee\L	.	.	.	.
8E\J	.	8dd\	8dd\	.	.	.	.	8ee\J	8ee\J	.	.	.	.
=68	=68	=68	=68	=68	=68	=68	=68	=68	=68	=68	=68	=68	=68
8AA/L	.	16cc#\LL	16cc#\LL	4A\	-sis	4cc#\	-sis	8a/L	8ee\L	2ryy	2ryy	2ryy	2ryy
.	.	16a\	16a\	.	.	.	.	.	.	.	.	.	.
8BB/	.	16cc#\	16cc#\	.	.	.	.	16a/L	16ee\L	.	.	.	.
.	.	16ee\JJ	16ee\JJ	.	.	.	.	16a/JJ	16ee\JJ	.	.	.	.
8C#/	.	8aa\L	8aa\L	4c#\	o-	4ee\	o-	8a/L	8ee\L	.	.	.	.
8AA/J	.	8ee\J	8ee\J	.	.	.	.	8a/J	8ee\J	.	.	.	.
!	!	!	!	!	!	!	!	!	!LO:LB:g=original	!	!	!	!
=69	=69	=69	=69	=69	=69	=69	=69	=69	=69	=69	=69	=69	=69
8D\L	.	8ff#\L	8ff#\L	8d\	-san-	8ff#\	-san-	4dd\	4ff#\	2ryy	2ryy	2ryy	2ryy
8D\	.	8ff#\	[8bb\J	8B\	-na	8dd\	-na	.	.	.	.	.	.
8D\	.	8ff#\	16bb\LL]	8B\	in	8dd\	.	4r	4r	.	.	.	.
.	.	.	16aa\	.	.	.	.	.	.	.	.	.	.
!	!	!	!	!	!	!LO:N:vis=8	!	!	!	!	!	!	!
8D\J	.	8ff#\J	16gg#X\	8B\	ex-	16dd\	in	.	.	.	.	.	.
!	!	!	!	!	!	!LO:N:vis=8	!	!	!	!	!	!	!
.	.	.	16ff#\JJ	.	.	16dd\	ex-	.	.	.	.	.	.
!	!	!	!	!	!	!	!	!LO:LB:g=original	!	!	!	!	!
=70	=70	=70	=70	=70	=70	=70	=70	=70	=70	=70	=70	=70	=70
*	*	*tremolo	*	*	*	*	*	*	*	*	*	*	*
8E\L	.	16b\L	16gg#\LL	2B\	-cel-	2dd\	-cel-	8ee\L	8ee\L	2ryy	2ryy	2ryy	2ryy
.	.	16b\	16bb\JJ	.	.	.	.	.	.	.	.	.	.
16e\L	.	16b\	4dd\	.	.	.	.	8ee\	8ee\	.	.	.	.
16d#X\JJ	.	16b\J	.	.	.	.	.	.	.	.	.	.	.
!LO:TX:a:t=P:problem=mixed beam	!	!	!	!	!	!	!	!	!	!	!	!	!
8e\L	.	16b\L	.	.	.	.	.	8ee\	8ee\	.	.	.	.
.	.	16b\	.	.	.	.	.	.	.	.	.	.	.
8E/J	.	16b\	16cc#\LL	.	.	.	.	8ee\J	8ee\J	.	.	.	.
.	.	16b\J	16b\JJ	.	.	.	.	.	.	.	.	.	.
=71	=71	=71	=71	=71	=71	=71	=71	=71	=71	=71	=71	=71	=71
!	!	!	!LO:TX:t=P:problem=w źródle takt 71 zapisany jako repetycja taktu 70	!	!	!	!	!	!	!	!	!	!
8E\L	.	16b\L	16gg#\LL	2B\	-sis	2dd\	-sis	8ee\L	8ee\L	2ryy	2ryy	2ryy	2ryy
.	.	16b\	16bb\JJ	.	.	.	.	.	.	.	.	.	.
16e\L	.	16b\	4dd\	.	.	.	.	8ee\	8ee\	.	.	.	.
16d#X\JJ	.	16b\J	.	.	.	.	.	.	.	.	.	.	.
!LO:TX:a:t=P:problem=mixed beam	!	!	!	!	!	!	!	!	!	!	!	!	!
8e\L	.	16b\L	.	.	.	.	.	8ee\	8ee\	.	.	.	.
.	.	16b\	.	.	.	.	.	.	.	.	.	.	.
8E/J	.	16b\	16cc#\LL	.	.	.	.	8ee\J	8ee\J	.	.	.	.
.	.	16b\J	16b\JJ	.	.	.	.	.	.	.	.	.	.
!LO:LB:g=original	!	!	!	!	!	!	!	!	!	!	!	!	!
*	*	*Xtremolo	*	*	*	*	*	*	*	*	*	*	*
=72	=72	=72	=72	=72	=72	=72	=72	=72	=72	=72	=72	=72	=72
!	!	!	!LO:TUP:a:problem=klamra łukowa, kropka zamiast numeru	!	!	!	!	!	!	!	!	!	!
8AA/L	.	24cc#\LL	24cc#\LL	8A/	in	8cc#\	in	4a/	4ee\	2ryy	2ryy	2ryy	2ryy
.	.	24ee\	24ee\	.	.	.	.	.	.	.	.	.	.
.	.	24aa\JJ	24aa\JJ	.	.	.	.	.	.	.	.	.	.
!	!	!	!	!	!	!	!	!	!	!	!	!	!
8C#/	.	24cc#\LL	24cc#\LL	8A/	ex-	8cc#\	ex-	.	.	.	.	.	.
.	.	24b\	24b\	.	.	.	.	.	.	.	.	.	.
.	.	24a\JJ	24a\JJ	.	.	.	.	.	.	.	.	.	.
8E/	.	4bM\	4b\	4G#X/	-cel-	4b\	-cel-	4ee\	4ee\	.	.	.	.
8E/J	.	.	.	.	.	.	.	.	.	.	.	.	.
=73	=73	=73	=73	=73	=73	=73	=73	=73	=73	=73	=73	=73	=73
!LO:TX:a:t=P:problem=mixed beam	!	!	!	!	!	!	!	!	!	!	!	!	!
8AA/L	.	4a/	4a/	8A/	-sis	4cc#\	-sis	8a/L	8ee\L	2ryy	2ryy	2ryy	2ryy
16A\L	.	.	.	8r	.	.	.	16a/L	16ee\L	.	.	.	.
16Gn\JJ	.	.	.	.	.	.	.	16a/JJ	16ee\JJ	.	.	.	.
8F#\L	.	8r	8r	8r	.	8r	.	4a/	4ee\	.	.	.	.
8F#\J	.	8a/	8a/	8A\	o-	8a\	o-	.	.	.	.	.	.
!	!	!	!LO:LB:g=original	!	!	!LO:LB:g=original	!	!	!	!	!	!	!
=74	=74	=74	=74	=74	=74	=74	=74	=74	=74	=74	=74	=74	=74
8G\L	.	16b\LL	16b\LL	8d\	-san-	8b\	-san-	4r	4r	2ryy	2ryy	2ryy	2ryy
.	.	16dd\	16dd\	.	.	.	.	.	.	.	.	.	.
8A\	.	16cc#\	16cc#\	8c#\	-na	8cc#\	-na	.	.	.	.	.	.
.	.	16ee\JJ	16ee\JJ	.	.	.	.	.	.	.	.	.	.
8B\	.	16dd\LL	16dd\LL	8B\	in	8dd\	in	8r	8r	.	.	.	.
.	.	16ff#\	16ff#\	.	.	.	.	.	.	.	.	.	.
8c#\J	.	16ee\	16ee\	8A\	ex-	8ee\	ex-	8a/	8ee\	.	.	.	.
.	.	16gg\JJ	16gg\JJ	.	.	.	.	.	.	.	.	.	.
=75	=75	=75	=75	=75	=75	=75	=75	=75	=75	=75	=75	=75	=75
8d\L	.	8ff#\L	8ff#\L	8d\	-cel-	8ff#\	-cel-	8dd\L	8ff#\L	2ryy	2ryy	2ryy	2ryy
16A\L	.	8ee\J	8ee\J	8c#\	-sis	8ee\	-sis	8a\	16ee\L	.	.	.	.
16B\JJ	.	.	.	.	.	.	.	.	16ee\JJ	.	.	.	.
!	!	!LO:TUP:a:problem=klamra łukowa, kropka zamiast numer	!	!	!	!	!	!	!	!	!	!	!
8c#\L	.	24ee\LL	16ee\LL	8c#\	in	8ee\	.	8a\	8ee\L	.	.	.	.
.	.	24dd\	.	.	.	.	.	.	.	.	.	.	.
.	.	.	16cc#\	.	.	.	.	.	.	.	.	.	.
.	.	24cc#\JJ	.	.	.	.	.	.	.	.	.	.	.
!	!	!	!	!	!	!LO:N:vis=8	!	!	!	!	!	!	!
8A\J	.	16b\LL	16b\	8c#\	ex-	16ee\	in	8a\J	8ee\J	.	.	.	.
!	!	!	!	!	!	!LO:N:vis=8	!	!	!	!	!	!	!
.	.	16a\JJ	16a\JJ	.	.	16ee\	ex-	.	.	.	.	.	.
!	!	!LO:LB:g=original	!	!LO:LB:g=original	!	!	!	!	!	!	!	!	!
=76	=76	=76	=76	=76	=76	=76	=76	=76	=76	=76	=76	=76	=76
8d\L	.	8ff#\L	8ff#\L	8d\	-cel-	8ff#\	-cel-	8dd\L	8ff#\L	2ryy	2ryy	2ryy	2ryy
8A\	.	8ee\J	8ee\J	8c#\	-sis	8ee\	-sis	16a\L	16ee\L	.	.	.	.
.	.	.	.	.	.	.	.	16a\JJ	16ee\JJ	.	.	.	.
8A\	.	4r	4r	4r	.	4r	.	8a/L	8ee\L	.	.	.	.
8A\J	.	.	.	.	.	.	.	8a/J	8ee\J	.	.	.	.
=77	=77	=77	=77	=77	=77	=77	=77	=77	=77	=77	=77	=77	=77
8D\L	.	8dd\	8dd\	8f#\	o-	8a\	o-	8ff#\L	8aa\L	2ryy	2ryy	2ryy	2ryy
8E\	.	4ddd\	4ddd\	4f#\	-san-	8a\	-san-	8ff#\	8aa\	.	.	.	.
8F#\	.	.	.	.	.	4b\	-na	8ff#\	8aa\	.	.	.	.
8G\J	.	8bb\	8bb\	8g\	-na	.	.	8gg\J	8bb\J	.	.	.	.
=78	=78	=78	=78	=78	=78	=78	=78	=78	=78	=78	=78	=78	=78
8D\L	.	8aa\	8aa\	8f#\	in	8a\	in	8ff#\L	8aa\L	2ryy	2ryy	2ryy	2ryy
8E\	.	4ddd\	4ddd\	4f#\	ex-	(4a\	ex-	8ff#\	8aa\	.	.	.	.
8F#\	.	.	.	.	.	.	.	8ff#\	8aa\	.	.	.	.
8G\J	.	8bb\	8bb\	8g\	.	8b\)	-cel-	8gg\J	8bb\J	.	.	.	.
=79	=79	=79	=79	=79	=79	=79	=79	=79	=79	=79	=79	=79	=79
8F#\L	.	8aa\L	8aa\L	4f#\	-cel-	4a\	-sis	4ff#\	4aa\	2ryy	2ryy	2ryy	2ryy
8D\	.	16gg\L	16gg\L	.	.	.	.	.	.	.	.	.	.
.	.	16ff#\JJ	16ff#\JJ	.	.	.	.	.	.	.	.	.	.
8E\	.	4gg\	4ggM\	4e\	.	4g\	.	4ee\	4gg\	.	.	.	.
8AA\J	.	.	.	.	.	.	.	.	.	.	.	.	.
=80	=80	=80	=80	=80	=80	=80	=80	=80	=80	=80	=80	=80	=80
8D\L	.	8ff#\L	8ff#\L	4d\	-sis	4f#/	in	8dd\L	8ff#\L	2ryy	2ryy	2ryy	2ryy
8E\	.	8aa\J	8aa\J	.	.	.	.	8dd\	8ff#\	.	.	.	.
8F#\	.	16aa\LL	16aa\LL	8A/	in	8ff#\	ex-	8dd\	8ff#\	.	.	.	.
.	.	16ff#\	16ff#\	.	.	.	.	.	.	.	.	.	.
8G\J	.	16ee\	16ee\	8A/	ex-	8ff#\	-cel-	8dd\J	8ff#\J	.	.	.	.
.	.	16dd\JJ	16dd\JJ	.	.	.	.	.	.	.	.	.	.
=81	=81	=81	=81	=81	=81	=81	=81	=81	=81	=81	=81	=81	=81
!	!	!LO:TX:a:t=P:problem=mixed beam	!	!	!	!	!	!	!	!	!	!	!
8A\L	.	16cc#\LL	16cc#\LL	4c#\	-cel-	4ee\	.	4a/	4ee\	2ryy	2ryy	2ryy	2ryy
.	.	16e/	16ee\JJ	.	.	.	.	.	.	.	.	.	.
16A\L	.	16e/	4g/	.	.	.	.	.	.	.	.	.	.
16G#X\JJ	.	16e/JJ	.	.	.	.	.	.	.	.	.	.	.
!LO:TX:a:t=P:problem=mixed beam	!	!	!	!	!	!	!	!	!	!	!	!	!
8A\L	.	16e/LL	.	8c#\	-sis	8ee\	-sis	4r	4r	.	.	.	.
.	.	16e/	.	.	.	.	.	.	.	.	.	.	.
8AA/J	.	16e/	16f#/LL	8c#\	ex-	8ee\	ex-	.	.	.	.	.	.
.	.	16e/JJ	16e/JJ	.	.	.	.	.	.	.	.	.	.
!	!	!	!	!	!	!LO:LB:g=original	!	!	!	!	!	!	!
=82	=82	=82	=82	=82	=82	=82	=82	=82	=82	=82	=82	=82	=82
!LO:TX:a:t=P:problem=mixed beam	!	!	!LO:TX:t=P:problem=w źródle takt 82 zapisany jako repetycja taktu 81	!	!	!	!	!	!	!	!	!	!
8AA/L	.	16e/LL	16cc#\LL	4c#\	-cel-	4ee\	-cel-	4a/	4ee\	2ryy	2ryy	2ryy	2ryy
.	.	16e/	16ee\JJ	.	.	.	.	.	.	.	.	.	.
16A\L	.	16e/	4g/	.	.	.	.	.	.	.	.	.	.
16G#X\JJ	.	16e/JJ	.	.	.	.	.	.	.	.	.	.	.
!LO:TX:a:t=P:problem=mixed beam	!	!	!	!	!	!	!	!	!	!	!	!	!
8A\L	.	16e/LL	.	4c#\	-sis	4ee\	-sis	4r	4r	.	.	.	.
.	.	16e/	.	.	.	.	.	.	.	.	.	.	.
8AA/J	.	16e/	16f#/LL	.	.	.	.	.	.	.	.	.	.
.	.	16e/JJ	16e/JJ	.	.	.	.	.	.	.	.	.	.
!	!	!LO:LB:g=original	!	!	!	!	!	!	!LO:LB:g=original	!	!	!	!
=83	=83	=83	=83	=83	=83	=83	=83	=83	=83	=83	=83	=83	=83
!	!	!	!LO:TX:a:t=P:problem=mixed beam	!	!	!	!	!	!	!	!	!	!
8D\L	.	16d/LL	16f#/LL	4d\	o-	4ff#\	o-	4dd\	4ff#\	2ryy	2ryy	2ryy	2ryy
.	.	16f#/	16d/	.	.	.	.	.	.	.	.	.	.
8E\	.	16f#/	16dd\	.	.	.	.	.	.	.	.	.	.
.	.	16f#/JJ	16dd\JJ	.	.	.	.	.	.	.	.	.	.
*	*	*	*tremolo	*	*	*	*	*	*	*	*	*	*
8F#\	.	16f#/LL	16dd\L	8d\	-san-	8ff#\	-san-	8r	8r	.	.	.	.
.	.	16f#/	16dd\	.	.	.	.	.	.	.	.	.	.
8G\J	.	16f#/	16dd\	8d\	-na	8ff#\	-na	8dd\	8ff#\	.	.	.	.
.	.	16f#/JJ	16dd\J	.	.	.	.	.	.	.	.	.	.
=84	=84	=84	=84	=84	=84	=84	=84	=84	=84	=84	=84	=84	=84
8A\L	.	16e/LL	16cc#\LL	8c#\	in	8ee\	in	4a/	4ee\	2ryy	2ryy	2ryy	2ryy
.	.	16cc#/JJ	16ee\	.	.	.	.	.	.	.	.	.	.
8B\	.	16ee\LL	16gg\	8c#\	ex-	8ee\	ex-	.	.	.	.	.	.
.	.	16ee\JJ	16gg\JJ	.	.	.	.	.	.	.	.	.	.
8c#\	.	16ee\LL	16gg\L	8c#\	-cel-	8ee\	-cel-	8r	8r	.	.	.	.
.	.	16ee\	16gg\	.	.	.	.	.	.	.	.	.	.
8A\J	.	16ee\	16gg\	8c#\	-sis	8ee\	-sis	8a/	8ee\	.	.	.	.
.	.	16ee\JJ	16gg\J	.	.	.	.	.	.	.	.	.	.
!LO:LB:g=original	!	!	!	!LO:PB:g=original	!	!	!	!	!	!	!	!	!
=85	=85	=85	=85	=85	=85	=85	=85	=85	=85	=85	=85	=85	=85
!	!	!LO:TX:a:t=P:problem=mixed beam	!	!	!	!	!	!	!	!	!	!	!
8D\L	.	16dd\LL	16ff#\LL	4d\	o-	4ff#\	o-	4dd\	4ff#\	2ryy	2ryy	2ryy	2ryy
.	.	16f#/	16dd\	.	.	.	.	.	.	.	.	.	.
8E\	.	16f#/	16dd\	.	.	.	.	.	.	.	.	.	.
.	.	16f#/JJ	16dd\JJ	.	.	.	.	.	.	.	.	.	.
8F#\	.	16f#/LL	16dd\L	8d\	-san-	8ff#\	-san-	8r	8r	.	.	.	.
.	.	16f#/	16dd\	.	.	.	.	.	.	.	.	.	.
8G\J	.	16f#/	16dd\	8d\	-na	8ff#\	-na	8dd\	8ff#\	.	.	.	.
.	.	16f#/JJ	16dd\J	.	.	.	.	.	.	.	.	.	.
=86	=86	=86	=86	=86	=86	=86	=86	=86	=86	=86	=86	=86	=86
8A\L	.	16e/LL	16cc#\LL	8c#\	in	8ee\	in	4a/	4ee\	2ryy	2ryy	2ryy	2ryy
.	.	16g/	16ee\	.	.	.	.	.	.	.	.	.	.
8B\	.	16e/	16g\	8c#\	ex-	8ee\	ex-	.	.	.	.	.	.
.	.	16e/JJ	16g\JJ	.	.	.	.	.	.	.	.	.	.
8c#\	.	16e/LL	16g/L	8c#\	-cel-	8ee\	-cel-	8r	8r	.	.	.	.
.	.	16e/	16g/	.	.	.	.	.	.	.	.	.	.
8A\J	.	16e/	16g/	8c#\	-sis	8ee\	-sis	8a/	8ee\	.	.	.	.
.	.	16e/JJ	16g/J	.	.	.	.	.	.	.	.	.	.
*	*	*	*Xtremolo	*	*	*	*	*	*	*	*	*	*
!	!	!	!	!	!	!	!	!LO:LB:g=original	!	!	!	!	!
=87	=87	=87	=87	=87	=87	=87	=87	=87	=87	=87	=87	=87	=87
!	!	!LO:TX:a:t=P:problem=mixed beam	!LO:TX:a:t=P:problem=mixed beam	!	!	!	!	!	!	!	!	!	!
8D\L	.	8d/L	8f#/L	4d\	o-	4ff#\	o-	8dd\L	8ff#\L	2ryy	2ryy	2ryy	2ryy
8D\	.	16dd\L	16dd\L	.	.	.	.	8dd\	8ff#\	.	.	.	.
.	.	16ee\JJ	16ee\JJ	.	.	.	.	.	.	.	.	.	.
8F#\	.	16ff#\LL	16ff#\LL	8d\	-san-	8ff#\	-san-	8dd\	8ff#\	.	.	.	.
.	.	16gg\	16gg\	.	.	.	.	.	.	.	.	.	.
8G\J	.	16aa\	16aa\	8d\	-na	8ff#\	-na	8dd\J	8ff#\J	.	.	.	.
.	.	16bb\JJ	16bb\JJ	.	.	.	.	.	.	.	.	.	.
=88	=88	=88	=88	=88	=88	=88	=88	=88	=88	=88	=88	=88	=88
.	.	8qqdd/	8qqdd/	.	.	.	.	.	.	.	.	.	.
8A\L	.	8cc#\L	8cc#\L	4c#\	in	4ee\	in	8a\L	8ee\L	2ryy	2ryy	2ryy	2ryy
8G\	.	16b\L	16b\L	.	.	.	.	8a\	8ee\	.	.	.	.
.	.	16a\JJ	16a\JJ	.	.	.	.	.	.	.	.	.	.
!	!	!LO:TX:a:t=P:problem=mixed beam	!LO:TX:a:t=P:problem=mixed beam	!	!	!	!	!	!	!	!	!	!
8F#\	.	8dd\L	8dd\L	8d\L	ex-	8ff#\L	ex-	8dd\	8ff#\	.	.	.	.
8G\J	.	8g/J	8g/J	8g\J	.	8ee\J	.	8ee\J	8gg\J	.	.	.	.
=89	=89	=89	=89	=89	=89	=89	=89	=89	=89	=89	=89	=89	=89
4A\	.	4f#/	4f#/	4f#\	-cel-	4dd\	-cel-	4dd\	4ff#\	2ryy	2ryy	2ryy	2ryy
4AA/	.	4e/	4eM/	4e\	-sis	4cc#\	.	4a/	4ee\	.	.	.	.
!	!	!LO:LB:g=original	!	!	!	!LO:LB:g=original	!	!	!	!	!	!	!
=90	=90	=90	=90	=90	=90	=90	=90	=90	=90	=90	=90	=90	=90
!LO:TX:a:t=P:problem=mixed beam	!	!LO:TX:a:t=P:problem=mixed beam	!LO:TX:a:t=P:problem=mixed beam	!	!	!	!	!	!	!	!	!	!
8D\L	.	16d/LL	16d/LL	8f#\	in	8dd\	-sis	4dd\	4ff#\	2ryy	2ryy	2ryy	2ryy
.	.	16gg\	16gg\	.	.	.	.	.	.	.	.	.	.
8G\	.	16ee\	16ee\	8g\	ex-	8ee\	ex-	.	.	.	.	.	.
.	.	16bM\JJ	16b\JJ	.	.	.	.	.	.	.	.	.	.
.	.	.	.	.	.	8qqdd/	.	.	.	.	.	.	.
8A\	.	4cc#\	4cc#m\	4e\	-cel-	4cc#\	-cel-	8a/L	8ee\L	.	.	.	.
8AA/J	.	.	.	.	.	.	.	8a/J	8ee\J	.	.	.	.
=91	=91	=91	=91	=91	=91	=91	=91	=91	=91	=91	=91	=91	=91
!	!	!LO:TX:a:t=P:problem=mixed beam	!LO:TX:a:t=P:problem=mixed beam	!	!	!	!	!	!	!	!	!	!
4D\	.	8dd\L	8dd\L	4f#\	-sis	4dd\	-sis	4dd\	4ff#\	2ryy	2ryy	2ryy	2ryy
.	.	8d/J	8d/J	.	.	.	.	.	.	.	.	.	.
4r	.	4r	4r	4r	.	4r	.	4r	4r	.	.	.	.
==	==	==	==	==	==	==	==	==	==	==	==	==	==
*-	*-	*-	*-	*-	*-	*-	*-	*-	*-	*-	*-	*-	*-
!!!system-decoration: [s1,s2][s3,s4][s5,s6][s7,s8][s9,s10]s11
!!!EED: Antoni Szymański
!!!EEV: 2020-10-03
!!!ENC: Berenika Jozajtis
!!!END: 2020-05-18
!!!YEC: Copyright 2022 Narodowy Instytut Fryderyka Chopina (https://polishscores.org)
!!!YEM: License CC-BY-4.0 (https://creativecommons.org/licenses/by/4.0)
